X: 37785
T: Song Of The Falcon Chief
R: barndance
M: 4/4
K: Eminor
"Am"AB c B/A/ "Em"G E GE|"Am"AB c B/A/ "Em"G E "Am"A z|"Am"AB c B/A/ "Em"G E GE|"Am"A B cB/A/ "Em"E "Am"GA z|
"D"de f e/d/ "C"c Ac A|"D"d efe/d/ "C"c A "D"d z|"D"d e f e/d/ "C"c Ac A|"D"de fe/d/ "C"A c "D"d2:|

